!!!OTL: Liebesprobe.
!!!OTL-incipit: ACH SCHIFFMAN LIEBER SCHIFFMAN HALT
!!!ARE: Europa, Mitteleuropa, Deutschland, Nord - Deutschland
!!!SCT: Z1022
!!!TXL: @@DE
!!!YEM: Copyright 1995, estate of Helmut Schaffrath.
**kern	**text
*ICvox	*
*M2/4	*
*k[b-e-]	*
*g:	*
!LO:TX:a:t=Aus Norddeutſchland.	!
{8g	Ach
=1	=1
8g	Schiffmann,
8a	.
8b-	lie-
8cc	-ber
=2	=2
8dd	Schiffmann:
16ggL	.
16ee-J	.
4dd}	halt,
=3	=3
{4gg	halt,
8b-	halt,
8cc	halt,
=4	=4
4.dd}	halt!
{8ee-	ich
=5	=5
8ee-	hab'
8cc	ein'n
8gg	Va-
16ff	-ter,
16ee-	der
=6	=6
8dd	hat
8b-	mich
4g}	lieb,
=7	=7
{4b-	der
8ee-	mich
8cc	er-
=8	=8
8b-	-lö-
8a	-ſen
8g}	wird,
{8gg	wohl
=9	=9
8ff#	aus
8dd	dem
8ee-	ö-
8cc#	-den
=10	=10
4dd	Schiff,
8r}	.
{8ccn	wohl
=11	=11
8b-/	aus
8g	dem
16b-L	ö-
16aJ	.
8f#	-den
=12	=12
(8a	Schiff!
4g;)}	.
{8dd	Der
=13	=13
8dd	Va-
8dd	-ter
8dd	an-
(16ccL	-ge-
16b-J)	.
=14	=14
16ddL	-gan-
16ccJ	.
8a	-gen
8a}	kam,
{16b-	ſeine
16cc	.
=15	=15
8cc	Toch-
8cc	-ter
8.ee-	ſah
16cc	ihn
=16	=16
16ccL	trau-
16b-J	.
8b-	-rig
4g}	an:
=17	=17
{4gg	Ach,
8b-	Va-
8cc	-ter,
=18	=18
4dd	ach!
8r}	.
{8ee-	ſetʒ'
=19	=19
8ee-	du
8cc	dein
8gg	Haus
16ff#L	und
16ee-J	.
=20	=20
8dd	Hof
8b-	für
8g	mich,
16r}	.
{16g	er-
=21	=21
8cc	-ret-
8cc	-te
8ee-	aus
8cc	dem
=22	=22
16cc/L	E-
16b-J	.
8a	-lend
8.g}	mich;
{16gg	wohl
=23	=23
8ff#	aus
8dd	dem
8ee-	ö-
8cc#	-den
=24	=24
4dd	Schiff,
8r}	.
{8ccn	wohl
=25	=25
8b-/	aus
8g	dem
16b-L	ö-
16aJ	.
8f#	-den
=26	=26
8aq	.
4g	Schiff!
8r}	.
{(16b-L	Mein
16ccJ)	.
=27	=27
8dd	Haus
8dd	und
8dd	Hof
(16ccL	das
16b-J)	.
=28	=28
(16ddL	ſetʒ'
16ccJ)	.
8a	ich
8a}	nicht,
{16cc	meine
16cc	.
=29	=29
8cc	ſchön-
8cc	-ſte
8ee-	Toch-
16cc	-ter
16cc	er-
=30	=30
16cc/L	-löſ'
16b-J	.
8g	ich
8g}	nicht!
{8d	Laßt's
=31	=31
8g	Schifflein
8a	.
8b-	nur
8cc	ʒu
=32	=32
8dd	Grunde
16ggL	.
16ee-J	.
8dd}	gehn,
{8gg	die
=33	=33
8ff#	ſchö-
8dd	-ne
8ee-	A-
8cc#	-del-
=34	=34
4.dd}	-heid
{8ccn	die
=35	=35
8b-/	ſoll
8g	im
16b-L	Meer
16aJ	.
8f#	er-
=36	=36
8a	-trin-
4g}	-ken!
==	==
!!!AGN: Romanze, Ballade
!!!ONB: ESAC (Essen Associative Code) Database: ZUCCAL
!!!AMT: simple duple
!!!AIN: vox
!!!EED: Helmut Schaffrath
!!!EEV: 1.0
!!!GTL: I. Volks- Leuschen.
!!!URL-scan: https://www.digitale-sammlungen.de/de/view/bsb11160573?page=60
!!!ENC: Anna Maria Matuszewska
!!!EEV: 2025/03/02
*-	*-
